X: 127
T: Nobody's Jig
M:4/4
L:1/8
Q:160
S:Playford
O:Manuscript
A:English
K:F
g2|f2 d2 d2 ef|g2 G2 G2 g2|f2 d2 defg|g6 ag|f2 d2 d2 ef|g2 d2 d2 c2|B4 A4|A6:|
|: cB|c2 e2 e2 ec|Bc d2 d2 cB|c2 e2 e2 dc|b2 d2 d2 B2|cBcd edef|g2 d2 d2 c2 |B4 A4| g6:|

